public/images/sponsors/Microsoft.svg

<svg width="305" height="66" viewBox="0 0 305 66" fill="none" xmlns="http://www.w3.org/2000/svg">
<path d="M15.4662 31.7174L0.968628 31.7174C0.30449 31.7174 0.00286048 31.6426 0.0249984 30.8411C0.0582053 21.0523 0.0582054 11.2607 0.0249985 1.46082C0.0249985 0.789742 0.210404 0.639999 0.838568 0.639999C10.6235 0.653864 20.4002 0.65941 30.1713 0.65941C30.8548 0.65941 31.0402 0.828565 31.0402 1.53569L31.0402 30.8245C31.0402 31.5705 30.841 31.7563 30.116 31.7368C25.2318 31.6814 20.3476 31.7174 15.4634 31.7174L15.4662 31.7174ZM34.2226 16.1884L34.2226 1.50519C34.2226 0.820246 34.372 0.628906 35.0776 0.628906C44.846 0.648318 54.6171 0.648318 64.3966 0.628906C65.0303 0.628906 65.2323 0.77865 65.2323 1.44973L65.2323 30.8301C65.2323 31.5205 65.0662 31.7257 64.3634 31.7257C54.5812 31.7202 44.799 31.7147 35.0168 31.7147C34.3665 31.7147 34.2032 31.5289 34.2032 30.8938C34.2419 25.9856 34.2281 21.0911 34.2281 16.1856L34.2226 16.1884ZM0.0554382 50.3827L0.0554382 35.6995C0.0554382 35.0478 0.204869 34.8787 0.869007 34.8787C10.6374 34.8981 20.4113 34.8981 30.1907 34.8787C30.8742 34.8787 31.0817 35.0284 31.0817 35.7356C31.0624 45.5105 31.0624 55.2744 31.0817 65.0244C31.0817 65.7509 30.9157 65.9561 30.1713 65.9561C20.4251 65.9367 10.6816 65.9367 0.943722 65.9561C0.238076 65.9561 0.0748088 65.7703 0.0748088 65.0798C0.0692743 60.1854 0.0554382 55.291 0.0554382 50.3827ZM34.2226 50.4022L34.2226 35.7189C34.2226 35.0839 34.372 34.8787 35.0223 34.8787C44.8266 34.8981 54.631 34.8981 64.4353 34.8787C65.0303 34.8787 65.2295 35.009 65.2295 35.6441L65.2295 65.1991C65.2295 65.7592 65.0995 65.945 64.51 65.945C54.6448 65.9256 44.7796 65.9256 34.9061 65.945C34.1451 65.945 34.2419 65.554 34.2419 65.0687L34.2226 50.4022ZM105.806 43.3642C106.921 40.2223 108.014 37.2829 109.22 34.3463C111.949 27.7437 114.65 21.1272 117.317 14.4941C117.387 14.2362 117.547 14.012 117.768 13.8628C117.989 13.7135 118.256 13.6492 118.521 13.6816C121.02 13.7371 123.519 13.7176 126.045 13.6816C126.64 13.6816 126.914 13.7565 126.914 14.4636L126.914 52.0327C126.914 52.7038 126.715 52.8729 126.078 52.8535C124.354 52.8147 122.608 52.8147 120.879 52.8535C120.27 52.8535 120.079 52.6483 120.079 52.0521L120.079 27.6771C120.079 25.5391 120.264 23.415 120.339 21.5709C116.794 31.1933 112.616 40.8324 108.753 50.5852C107.862 52.8341 107.823 52.8341 105.355 52.8341C104.056 52.8341 103.165 52.2398 102.681 51.051C99.1365 42.4158 95.5751 33.775 92.0053 25.1287C91.5792 24.1276 91.3218 23.024 90.951 21.8537L90.951 25.9467C90.951 32.5715 90.9621 39.2102 90.987 45.8571L90.987 51.9994C90.987 52.6317 90.8376 52.8757 90.1679 52.8563C88.5546 52.8175 86.9579 52.8175 85.3446 52.8563C84.7109 52.8563 84.5642 52.6317 84.5642 52.0355L84.5642 14.4664C84.5642 13.8702 84.7081 13.665 85.3446 13.665C88.0731 13.701 90.7822 13.665 93.5135 13.665C93.9147 13.5734 94.3243 13.7953 94.4626 14.1863C98.0269 23.3623 101.857 32.4246 105.249 41.6504C105.454 42.2356 105.584 42.6987 105.808 43.3642L105.806 43.3642ZM289.025 17.0342C288.225 16.829 287.611 16.5323 286.924 16.4186C283.925 15.9583 282.095 17.2949 281.799 20.2897C281.669 21.6125 281.761 22.9491 281.744 24.2968C281.744 24.7238 281.943 24.7987 282.32 24.7987L290.953 24.7987C291.454 24.7987 291.584 24.6129 291.584 24.147L291.584 19.3081C291.584 18.698 291.714 18.3625 292.365 18.1906C294.089 17.6886 295.799 17.1895 297.49 16.6127C298.215 16.3659 298.251 16.6487 298.251 17.2228L298.251 23.9196C298.251 24.6101 298.442 24.8375 299.144 24.8153C300.78 24.7599 302.429 24.8514 304.065 24.7765C304.845 24.7765 305.014 25.0233 304.975 25.7277C304.92 26.9339 304.939 28.1458 304.975 29.3548C304.975 29.9871 304.809 30.2311 304.139 30.2117C302.429 30.1756 300.741 30.2117 299.031 30.2117C298.53 30.2117 298.251 30.2865 298.251 30.9188C298.289 35.2919 298.251 39.665 298.325 44.038C298.4 47.5432 300.824 48.9713 304.029 47.5432C304.939 47.1327 304.953 47.1327 304.953 48.1754L304.953 51.8025C305.047 52.274 304.743 52.7343 304.272 52.8286L304.269 52.8286C301.975 53.6127 299.509 53.7527 297.141 53.2334C294.412 52.6012 292.758 50.8347 292.033 48.1532C291.731 46.9499 291.593 45.7111 291.623 44.4706L291.623 31.1656C291.623 30.4585 291.474 30.1978 290.713 30.2144C288.017 30.2699 285.325 30.2699 282.635 30.2144C281.929 30.2144 281.78 30.4196 281.78 31.1101C281.78 38.0316 281.78 44.9365 281.819 51.858C281.819 52.7093 281.595 52.9561 280.74 52.9145C279.24 52.8397 277.74 52.8397 276.19 52.9145C275.321 52.9533 275.042 52.7481 275.061 51.8164C275.097 44.9698 275.061 38.1204 275.097 31.2543C275.097 30.4585 274.931 30.1368 274.098 30.2117C273.099 30.2865 272.097 30.2117 271.129 30.2117C270.683 30.2117 270.445 30.1368 270.459 29.5961C270.498 28.204 270.498 26.8064 270.459 25.4143C270.459 24.9124 270.645 24.7793 271.11 24.7987L274.358 24.7987C274.917 24.7987 275.103 24.649 275.103 24.0722C275.003 22.4583 275.033 20.8416 275.197 19.2332C276.032 13.9145 279.987 10.7172 285.499 10.8226C286.52 10.8143 287.539 10.9391 288.529 11.1942C288.864 11.2885 289.086 11.4188 289.086 11.8098C289.011 13.5318 289.03 15.24 289.03 17.0286L289.025 17.0342ZM255.131 53.4885C248.393 53.4885 243.398 50.0833 241.724 44.1878C240.665 40.5266 240.763 36.6269 242.004 33.0235C242.566 31.2592 243.517 29.6442 244.787 28.2978C246.056 26.9514 247.611 25.9082 249.337 25.2452C251.946 24.2469 254.752 23.8781 257.531 24.1692C259.515 24.2912 261.449 24.8292 263.209 25.7526C264.65 26.5182 265.917 27.5744 266.931 28.8549C267.944 30.1354 268.682 31.6123 269.098 33.1927C270.08 36.5425 270.119 40.0975 269.208 43.4668C267.595 49.512 262.559 53.3638 256.155 53.4858L255.131 53.4969L255.131 53.4885ZM247.928 38.8802C247.868 40.2865 248.063 41.6921 248.504 43.0286C249.583 46.2897 252.292 48.1283 255.823 48.0368C259.352 47.9452 261.576 46.1594 262.487 42.6959C263.132 40.2612 263.162 37.7044 262.581 35.253C261.781 31.8672 259.352 29.743 256.191 29.6515C252.193 29.5212 249.63 31.2405 248.504 34.8066C248.069 36.1186 247.874 37.4987 247.928 38.8802ZM201.84 53.4664C198.09 53.4664 194.692 52.554 191.842 49.9612C190.012 48.2664 188.738 46.055 188.189 43.6193C187.312 40.1742 187.447 36.5485 188.579 33.1788C190.378 27.8934 194.244 25.0843 199.662 24.3023C202.335 23.8725 205.069 24.0583 207.659 24.8431C209.473 25.3581 211.131 26.3134 212.488 27.6242C213.845 28.935 214.858 30.561 215.438 32.358C217.038 37.0472 216.977 41.7503 214.755 46.2537C212.71 50.4077 209.201 52.6206 204.687 53.3055C204.234 53.3832 203.774 53.4331 203.312 53.4553C202.822 53.4858 202.332 53.4885 201.843 53.4664L201.84 53.4664ZM202.194 29.6543C198.555 29.6543 196.026 31.5316 195.06 35.07C194.562 36.9554 194.429 38.9191 194.67 40.8546C195.135 45.0585 197.529 47.6263 201.632 47.9619C205.031 48.242 207.87 46.8638 208.985 43.2172C209.81 40.5717 209.876 37.7488 209.176 35.0673C208.282 31.5316 205.833 29.6515 202.178 29.6515L202.191 29.6515L202.194 29.6543ZM236.732 31.4374C234.973 30.289 232.955 29.5997 230.863 29.4324C230.033 29.3465 229.194 29.4214 228.394 29.6515C227.335 30.0259 226.521 30.6526 226.369 31.8311C226.153 32.9958 226.698 34.166 227.725 34.7511C228.798 35.3667 229.916 35.9019 231.068 36.3539C232.321 36.8757 233.532 37.497 234.687 38.2119C239.48 41.118 239.35 48.3362 234.781 51.4254C231.903 53.3582 228.693 53.7104 225.37 53.4303C223.613 53.2864 221.886 52.8894 220.242 52.2518C220.051 52.2059 219.882 52.0929 219.766 51.9333C219.65 51.7736 219.595 51.5777 219.611 51.381L219.611 45.7407C219.871 45.5909 220.001 45.7407 220.112 45.871C222.116 47.2511 224.45 48.0706 226.875 48.2447C227.891 48.3418 228.917 48.2059 229.875 47.8537C231.222 47.3712 231.923 45.8849 231.438 44.5372C231.438 44.5316 231.436 44.5289 231.433 44.5233C231.267 44.0547 230.962 43.647 230.564 43.3503C229.374 42.3825 227.924 41.8473 226.565 41.2678C225.511 40.8213 224.506 40.3 223.485 39.7648C218.466 37.0749 218.277 29.4047 223.084 26.2046C225.738 24.441 228.674 23.9751 231.773 24.2524C233.219 24.3704 234.647 24.658 236.026 25.1093C236.417 25.2396 236.771 25.3699 236.751 25.9107C236.713 27.6383 236.732 29.4463 236.732 31.4346L236.732 31.4374ZM166.226 32.0141C164.808 30.9662 163.195 30.2138 161.482 29.8013C156.25 28.7447 151.681 32.1112 151.235 37.4715C151.05 39.7204 151.161 41.9361 152.234 43.9826C154.13 47.4877 158.328 48.8964 162.542 47.4433C163.625 47.0781 164.651 46.5589 165.586 45.9015C166.032 45.5798 166.217 45.6214 166.217 46.2176L166.217 51.0566C166.256 51.406 166.048 51.736 165.716 51.8525C160.998 54.326 152.27 54.5867 147.577 49.0822C145.834 47.0837 144.727 44.6086 144.398 41.9749C143.863 37.6933 144.398 33.6003 146.927 29.9871C149.987 25.6195 154.426 24.0722 159.59 24.111C161.543 24.1249 163.478 24.4826 165.31 25.1675C165.94 25.4143 166.239 25.7083 166.201 26.4348C166.195 28.2373 166.231 30.0259 166.231 32.0141L166.226 32.0141ZM177.743 29.1468C178.523 27.899 179.243 26.7121 180.341 25.8164C182.251 24.3134 184.426 24.0139 186.745 24.4992C187.079 24.5741 187.414 24.6434 187.395 25.1315L187.395 31.3486C186.335 30.7746 185.165 30.4335 183.961 30.3475C182.098 30.1756 180.297 31.0685 179.301 32.6575C178.208 34.3272 177.662 36.297 177.74 38.2923L177.74 51.8774C177.74 52.64 177.555 52.8785 176.741 52.8785C175.072 52.823 173.401 52.8397 171.743 52.8785C171.243 52.8785 171.038 52.7481 171.038 52.2074L171.038 25.5086C171.038 25.0067 171.154 24.8015 171.707 24.8015C173.47 24.8375 175.236 24.8375 177.001 24.8015C177.596 24.8015 177.74 25.0067 177.726 25.5419C177.701 26.7481 177.74 27.96 177.74 29.1496L177.743 29.1468ZM139.765 38.8802L139.765 51.9051C139.765 52.6511 139.541 52.8563 138.816 52.8369C137.203 52.7814 135.606 52.8008 133.987 52.8369C133.378 52.8369 133.118 52.726 133.118 52.0355C133.138 43.2006 133.138 34.3601 133.118 25.5225C133.118 24.9457 133.304 24.7765 133.857 24.7959C135.531 24.8348 137.2 24.8514 138.855 24.7959C139.566 24.7959 139.749 24.9817 139.729 25.6888C139.743 30.0813 139.765 34.4905 139.765 38.883L139.765 38.8802ZM136.536 12.9024C138.711 12.833 140.529 14.5412 140.598 16.7208L140.598 16.7403C140.598 18.9005 138.819 20.5726 136.533 20.5726C134.419 20.6502 132.645 18.9947 132.568 16.8761C132.49 14.7575 134.142 12.98 136.256 12.9024C136.348 12.8996 136.442 12.8996 136.533 12.9024L136.536 12.9024Z" fill="#D1D1D1"/>
</svg>

<svg xmlns="http://www.w3.org/2000/svg" fill="none" viewBox="0 0 305 66">
  <path fill="#D1D1D1" d="M15.466 31.717H.97c-.665 0-.966-.074-.944-.876q.05-14.682 0-29.38C.025.79.21.64.839.64Q15.515.66 30.17.66c.684 0 .87.169.87.876v29.289c0 .745-.2.931-.925.912-4.884-.056-9.768-.02-14.653-.02zm18.757-15.529V1.505c0-.685.149-.876.855-.876q14.651.03 29.319 0c.633 0 .835.15.835.82V30.83c0 .69-.166.896-.869.896q-14.673-.01-29.346-.011c-.65 0-.814-.186-.814-.821.039-4.908.025-9.803.025-14.708zM.055 50.383V35.699c0-.651.15-.82.814-.82q14.652.03 29.322 0c.683 0 .89.15.89.857q-.028 14.663 0 29.288c0 .727-.165.932-.91.932q-14.62-.03-29.227 0c-.706 0-.87-.186-.87-.876C.07 60.185.056 55.29.056 50.383m34.168.02V35.718c0-.635.149-.84.8-.84q14.706.03 29.412 0c.595 0 .794.13.794.765V65.2c0 .56-.13.746-.719.746-9.865-.02-19.73-.02-29.604 0-.76 0-.664-.391-.664-.876zm71.583-7.039c1.115-3.142 2.208-6.081 3.414-9.018q4.095-9.903 8.097-19.852a1.11 1.11 0 0 1 1.204-.812c2.499.055 4.998.036 7.524 0 .595 0 .869.075.869.782v37.569c0 .67-.199.84-.836.82-1.724-.038-3.47-.038-5.199 0-.609 0-.8-.205-.8-.8V27.676c0-2.138.185-4.262.26-6.106-3.545 9.622-7.723 19.261-11.586 29.014-.891 2.25-.93 2.25-3.398 2.25q-1.948 0-2.674-1.784c-3.544-8.635-7.106-17.276-10.676-25.922-.426-1.001-.683-2.105-1.054-3.275v4.093q0 9.938.036 19.91V52c0 .633-.15.877-.82.857a100 100 0 0 0-4.822 0c-.634 0-.78-.224-.78-.82v-37.57c0-.596.143-.801.78-.801 2.728.036 5.437 0 8.168 0a.815.815 0 0 1 .95.521c3.564 9.176 7.394 18.239 10.786 27.464.205.586.335 1.049.559 1.714zm183.219-26.33c-.8-.205-1.414-.502-2.101-.615-2.999-.46-4.829.876-5.125 3.87-.13 1.323-.038 2.66-.055 4.008 0 .427.199.502.576.502h8.633c.501 0 .631-.186.631-.652v-4.839c0-.61.13-.945.781-1.117 1.724-.502 3.434-1.001 5.125-1.578.725-.247.761.036.761.61v6.697c0 .69.191.917.893.895 1.636-.055 3.285.036 4.921-.039.78 0 .949.247.91.952-.055 1.206-.036 2.418 0 3.627 0 .632-.166.876-.836.857-1.71-.036-3.398 0-5.108 0-.501 0-.78.075-.78.707.038 4.373 0 8.746.074 13.119.075 3.505 2.499 4.933 5.704 3.505.91-.41.924-.41.924.632v3.628a.87.87 0 0 1-.681 1.026h-.003a13.26 13.26 0 0 1-7.128.404c-2.729-.632-4.383-2.398-5.108-5.08a13.8 13.8 0 0 1-.41-3.682V31.166c0-.707-.149-.968-.91-.952q-4.043.084-8.078 0c-.706 0-.855.206-.855.896 0 6.922 0 13.827.039 20.748 0 .851-.224 1.098-1.079 1.056-1.5-.074-3-.074-4.55 0-.869.04-1.148-.166-1.129-1.098.036-6.846 0-13.696.036-20.562 0-.796-.166-1.117-.999-1.042-.999.075-2.001 0-2.969 0-.446 0-.684-.075-.67-.616.039-1.392.039-2.79 0-4.182 0-.502.186-.635.651-.615h3.248c.559 0 .745-.15.745-.727-.1-1.614-.07-3.23.094-4.839.835-5.318 4.79-8.516 10.302-8.41 1.021-.009 2.04.116 3.03.371.335.095.557.225.557.616-.075 1.722-.056 3.43-.056 5.219zM255.131 53.49c-6.738 0-11.733-3.406-13.407-9.301a18.5 18.5 0 0 1 .28-11.165 12.35 12.35 0 0 1 7.333-7.778 17.75 17.75 0 0 1 8.194-1.076c1.984.122 3.918.66 5.678 1.584a11.83 11.83 0 0 1 5.889 7.44 18.94 18.94 0 0 1 .11 10.274c-1.613 6.045-6.649 9.897-13.053 10.019l-1.024.01zm-7.203-14.609a11.7 11.7 0 0 0 .576 4.149c1.079 3.26 3.788 5.1 7.319 5.008 3.529-.092 5.753-1.878 6.664-5.341.645-2.435.675-4.992.094-7.443-.8-3.386-3.229-5.51-6.39-5.602q-5.998-.194-7.687 5.156a11.5 11.5 0 0 0-.576 4.073M201.84 53.466c-3.75 0-7.148-.912-9.998-3.505a12.34 12.34 0 0 1-3.653-6.342 18.5 18.5 0 0 1 .39-10.44c1.799-5.286 5.665-8.095 11.083-8.877a17.8 17.8 0 0 1 7.997.541 11.45 11.45 0 0 1 4.829 2.781 11.5 11.5 0 0 1 2.95 4.734c1.6 4.69 1.539 9.392-.683 13.896-2.045 4.154-5.554 6.367-10.068 7.052q-.68.116-1.375.15-.735.044-1.469.01zm.354-23.812c-3.639 0-6.168 1.878-7.134 5.416a15.3 15.3 0 0 0-.39 5.785c.465 4.204 2.859 6.771 6.962 7.107 3.399.28 6.238-1.098 7.353-4.745.825-2.645.891-5.468.191-8.15-.894-3.535-3.343-5.416-6.998-5.416h.013zm34.538 1.783a12.6 12.6 0 0 0-5.869-2.005 6.5 6.5 0 0 0-2.469.22c-1.059.374-1.873 1-2.025 2.18a2.78 2.78 0 0 0 1.356 2.92 25 25 0 0 0 3.343 1.602 25.5 25.5 0 0 1 3.619 1.858c4.793 2.906 4.663 10.124.094 13.213-2.878 1.933-6.088 2.285-9.411 2.005a18.3 18.3 0 0 1-5.128-1.178.83.83 0 0 1-.631-.871v-5.64c.26-.15.39 0 .501.13a13.65 13.65 0 0 0 6.763 2.374 6.8 6.8 0 0 0 3-.391 2.59 2.59 0 0 0 1.563-3.317q0-.006-.005-.014a2.5 2.5 0 0 0-.869-1.173c-1.19-.968-2.64-1.503-3.999-2.082-1.054-.447-2.059-.968-3.08-1.503-5.019-2.69-5.208-10.36-.401-13.56 2.654-1.764 5.59-2.23 8.689-1.953 1.446.118 2.874.406 4.253.857.391.13.745.26.725.802-.038 1.727-.019 3.535-.019 5.524zm-70.506.577a13.2 13.2 0 0 0-4.744-2.213c-5.232-1.056-9.801 2.31-10.247 7.67-.185 2.25-.074 4.465.999 6.512 1.896 3.505 6.094 4.913 10.308 3.46a12 12 0 0 0 3.044-1.541c.446-.322.631-.28.631.316v4.839a.755.755 0 0 1-.501.795c-4.718 2.474-13.446 2.735-18.139-2.77a13.33 13.33 0 0 1-3.179-7.107c-.535-4.282 0-8.375 2.529-11.988 3.06-4.367 7.499-5.915 12.663-5.876a16.7 16.7 0 0 1 5.72 1.056c.63.247.929.541.891 1.268-.006 1.802.03 3.59.03 5.58zm11.517-2.867c.78-1.248 1.5-2.435 2.598-3.33 1.91-1.504 4.085-1.803 6.404-1.318.334.075.669.144.65.633v6.217a8.5 8.5 0 0 0-3.434-1.001 4.96 4.96 0 0 0-4.66 2.31 9.6 9.6 0 0 0-1.561 5.634v13.585c0 .763-.185 1.002-.999 1.002a88 88 0 0 0-4.998 0c-.5 0-.705-.13-.705-.672V25.51c0-.502.116-.707.669-.707q2.645.052 5.294 0c.595 0 .739.205.725.74-.025 1.206.014 2.418.014 3.608zm-37.978 9.733v13.025c0 .746-.224.951-.949.932-1.613-.056-3.21-.036-4.829 0-.609 0-.869-.111-.869-.802.02-8.834.02-17.675 0-26.512 0-.577.186-.747.739-.727 1.674.039 3.343.055 4.998 0 .711 0 .894.186.874.893.014 4.392.036 8.801.036 13.194zm-3.229-25.978a3.94 3.94 0 0 1 4.062 3.819v.02c0 2.16-1.779 3.832-4.065 3.832a3.83 3.83 0 0 1-3.965-3.697 3.833 3.833 0 0 1 3.965-3.974z"/>
</svg>
